svgs/solid/backpack.svg

<svg xmlns="http://www.w3.org/2000/svg" viewBox="0 0 448 512"><!-- Font Awesome Pro 5.15.3 by @fontawesome - https://fontawesome.com License - https://fontawesome.com/license (Commercial License) --><path d="M320 320H128c-17.67 0-32 14.33-32 32v32h256v-32c0-17.67-14.33-32-32-32zM96 512h256v-96H96v96zM320 80h-8V56c0-30.88-25.12-56-56-56h-64c-30.88 0-56 25.12-56 56v24h-8C57.31 80 0 137.31 0 208v240c0 35.35 28.65 64 64 64V352c0-35.29 28.71-64 64-64h192c35.29 0 64 28.71 64 64v160c35.35 0 64-28.65 64-64V208c0-70.69-57.31-128-128-128zM184 56c0-4.41 3.59-8 8-8h64c4.41 0 8 3.59 8 8v24h-80V56zm136 144c0 4.42-3.58 8-8 8H136c-4.42 0-8-3.58-8-8v-16c0-4.42 3.58-8 8-8h176c4.42 0 8 3.58 8 8v16z"/></svg>

<svg xmlns="http://www.w3.org/2000/svg" viewBox="0 0 448 512"><!--! Font Awesome Pro 6.0.0 by @fontawesome - https://fontawesome.com License - https://fontawesome.com/license (Commercial License) Copyright 2022 Fonticons, Inc. --><path d="M320 320H128c-17.62 0-32 14.38-32 32v32h256v-32C352 334.4 337.6 320 320 320zM96 512h256v-96H96V512zM320 80h-8V56C312 25.12 286.9 0 256 0H192C161.1 0 136 25.12 136 56V80H128c-70.75 0-128 57.25-128 128V448c0 35.38 28.62 64 64 64v-160c0-35.25 28.75-64 64-64h192c35.25 0 64 28.75 64 64v160c35.38 0 64-28.62 64-64V208C448 137.2 390.8 80 320 80zM184 56C184 51.62 187.6 48 192 48h64c4.375 0 8 3.625 8 8V80h-80V56zM320 200c0 4.375-3.625 8-8 8h-176C131.6 208 128 204.4 128 200v-16C128 179.6 131.6 176 136 176h176C316.4 176 320 179.6 320 184V200z"/></svg>
